icons/assets/Group 308.svg

<svg width="76" height="76" viewBox="0 0 76 76" fill="none" xmlns="http://www.w3.org/2000/svg">
<g clip-path="url(#clip0_662_5611)">
<rect x="34" y="21.2131" width="30" height="30" transform="rotate(-45 34 21.2131)" fill="#FD8282" fill-opacity="0.5"/>
<mask id="mask0_662_5611" style="mask-type:alpha" maskUnits="userSpaceOnUse" x="10" y="9" width="57" height="58">
<path d="M10 9H66.548V66.9995H10V9Z" fill="white"/>
</mask>
<g mask="url(#mask0_662_5611)">
<path fill-rule="evenodd" clip-rule="evenodd" d="M12.9762 64.023H63.5718V16.4037H12.9762V64.023ZM65.0599 66.9993H11.4881C10.665 66.9993 10 66.3343 10 65.5111V14.9156C10 14.0933 10.665 13.4275 11.4881 13.4275H65.0599C65.883 13.4275 66.548 14.0933 66.548 14.9156V65.5111C66.548 66.3343 65.883 66.9993 65.0599 66.9993Z" fill="#0A3B70"/>
<path fill-rule="evenodd" clip-rule="evenodd" d="M12.9762 28.3085H63.5718V16.4037H12.9762V28.3085ZM65.0599 31.2847H11.4881C10.665 31.2847 10 30.6198 10 29.7966V14.9156C10 14.0933 10.665 13.4275 11.4881 13.4275H65.0599C65.883 13.4275 66.548 14.0933 66.548 14.9156V29.7966C66.548 30.6198 65.883 31.2847 65.0599 31.2847Z" fill="#0A3B70"/>
<path fill-rule="evenodd" clip-rule="evenodd" d="M53.1541 20.9043C52.331 20.9043 51.666 20.2385 51.666 19.4162V10.4876C51.666 9.66533 52.331 8.99951 53.1541 8.99951C53.9773 8.99951 54.6422 9.66533 54.6422 10.4876V19.4162C54.6422 20.2385 53.9773 20.9043 53.1541 20.9043Z" fill="#0A3B70"/>
<path fill-rule="evenodd" clip-rule="evenodd" d="M23.3924 20.9043C22.5693 20.9043 21.9043 20.2385 21.9043 19.4162V10.4876C21.9043 9.66533 22.5693 8.99951 23.3924 8.99951C24.2155 8.99951 24.8805 9.66533 24.8805 10.4876V19.4162C24.8805 20.2385 24.2155 20.9043 23.3924 20.9043Z" fill="#0A3B70"/>
<path fill-rule="evenodd" clip-rule="evenodd" d="M34.0643 55.4569C33.6833 55.4569 33.3024 55.3115 33.0124 55.0206C32.4308 54.4399 32.4308 53.4977 33.0124 52.9169L45.6375 40.2893C46.2191 39.7076 47.1604 39.7076 47.7421 40.2893C48.3237 40.8709 48.3237 41.8122 47.7421 42.3939L35.1162 55.0206C34.8262 55.3115 34.4452 55.4569 34.0643 55.4569Z" fill="#0A3B70"/>
<path fill-rule="evenodd" clip-rule="evenodd" d="M34.0654 55.4565C33.6844 55.4565 33.3034 55.3111 33.0135 55.0203L28.8034 50.8119C28.2218 50.2303 28.2218 49.289 28.8034 48.7073C29.3842 48.1265 30.3264 48.1265 30.9072 48.7073L35.1172 52.9165C35.6989 53.4973 35.6989 54.4395 35.1172 55.0203C34.8273 55.3111 34.4463 55.4565 34.0654 55.4565Z" fill="#0A3B70"/>
</g>
</g>
<defs>
<clipPath id="clip0_662_5611">
<rect width="76" height="76" fill="white"/>
</clipPath>
</defs>
</svg>

<?xml version="1.0" encoding="utf-8"?>
<!-- Generator: Adobe Illustrator 26.0.1, SVG Export Plug-In . SVG Version: 6.00 Build 0)  -->
<svg version="1.1" id="Layer_1" xmlns="http://www.w3.org/2000/svg" xmlns:xlink="http://www.w3.org/1999/xlink" x="0px" y="0px"
	 viewBox="0 0 76 76" style="enable-background:new 0 0 76 76;" xml:space="preserve">
<style type="text/css">
	.st0{clip-path:url(#SVGID_00000116230080264775219280000001714702619362611116_);}
	.st1{fill:#F6C3C3;}
	.st2{fill:#FFFFFF;filter:url(#Adobe_OpacityMaskFilter);}
	.st3{mask:url(#mask0_662_5611_00000170263112565307522370000012443155678040690866_);}
	.st4{fill-rule:evenodd;clip-rule:evenodd;fill:#0A3B70;}
</style>
<g>
	<defs>
		<rect id="SVGID_1_" width="76" height="76"/>
	</defs>
	<clipPath id="SVGID_00000005246348991131485670000006081229573761136824_">
		<use xlink:href="#SVGID_1_"  style="overflow:visible;"/>
	</clipPath>
	<g style="clip-path:url(#SVGID_00000005246348991131485670000006081229573761136824_);">
		<rect x="40.2" y="6.2" transform="matrix(0.7071 -0.7071 0.7071 0.7071 1.1716 45.2548)" class="st1" width="30" height="30"/>
		<defs>
			<filter id="Adobe_OpacityMaskFilter" filterUnits="userSpaceOnUse" x="10" y="9" width="56.5" height="58">
				<feColorMatrix  type="matrix" values="1 0 0 0 0  0 1 0 0 0  0 0 1 0 0  0 0 0 1 0"/>
			</filter>
		</defs>
		
			<mask maskUnits="userSpaceOnUse" x="10" y="9" width="56.5" height="58" id="mask0_662_5611_00000170263112565307522370000012443155678040690866_">
			<path class="st2" d="M10,9h56.5v58H10V9z"/>
		</mask>
		<g class="st3">
			<path class="st4" d="M13,64h50.6V16.4H13V64z M65.1,67H11.5c-0.8,0-1.5-0.7-1.5-1.5V14.9c0-0.8,0.7-1.5,1.5-1.5h53.6
				c0.8,0,1.5,0.7,1.5,1.5v50.6C66.5,66.3,65.9,67,65.1,67z"/>
			<path class="st4" d="M13,28.3h50.6V16.4H13V28.3z M65.1,31.3H11.5c-0.8,0-1.5-0.7-1.5-1.5V14.9c0-0.8,0.7-1.5,1.5-1.5h53.6
				c0.8,0,1.5,0.7,1.5,1.5v14.9C66.5,30.6,65.9,31.3,65.1,31.3z"/>
			<path class="st4" d="M53.2,20.9c-0.8,0-1.5-0.7-1.5-1.5v-8.9c0-0.8,0.7-1.5,1.5-1.5c0.8,0,1.5,0.7,1.5,1.5v8.9
				C54.6,20.2,54,20.9,53.2,20.9z"/>
			<path class="st4" d="M23.4,20.9c-0.8,0-1.5-0.7-1.5-1.5v-8.9c0-0.8,0.7-1.5,1.5-1.5c0.8,0,1.5,0.7,1.5,1.5v8.9
				C24.9,20.2,24.2,20.9,23.4,20.9z"/>
			<path class="st4" d="M34.1,55.5c-0.4,0-0.8-0.1-1.1-0.4c-0.6-0.6-0.6-1.5,0-2.1l12.6-12.6c0.6-0.6,1.5-0.6,2.1,0
				c0.6,0.6,0.6,1.5,0,2.1L35.1,55C34.8,55.3,34.4,55.5,34.1,55.5z"/>
			<path class="st4" d="M34.1,55.5c-0.4,0-0.8-0.1-1.1-0.4l-4.2-4.2c-0.6-0.6-0.6-1.5,0-2.1c0.6-0.6,1.5-0.6,2.1,0l4.2,4.2
				c0.6,0.6,0.6,1.5,0,2.1C34.8,55.3,34.4,55.5,34.1,55.5z"/>
		</g>
	</g>
</g>
</svg>
